!!!OTL: An sealbh&szlig;n, S. 34
!!!id: I0534
**kern
*clefG2
*k[b-e-]
*B-:
{16b-
=1
16b-
8dd
8cc
8b-
8f
8d
8f
=2
8g
8b-
8b-
4b-}
8r
=3
{8dd
8cc
8b-
8f
8d
8f
=4
8g
8b-
8b-
4.b-}
=5
{8dd
8cc
8b-
8f
8d
8f
=6
8g
8b-
8b-
4.b-}
=7
{8b-
8cc
8dd
4ee-
8cc
=8
4dd
8b-
4cc
8b-}
=9
{4dd
8dd
8ff
8ee-
8dd
=10
4ee-
8dd
4cc}
=11
{8cc
=12
4ff
8dd
4ee-
8cc
=13
4dd
8cc
8b-
8f
16f}
=14
{16f
=15
8g
8f
8e-
8d
8e-
8f
=16
8g
8b-
8b-
4b-}
8r
=17
{8b-
8cc
8dd
4ee-
8cc
=18
8.dd
16dd
8b-
4cc
8b-}
=19
{8.dd
16dd
8ee-
8ff
8ee-
16dd
16dd
=20
8ee-
8ee-
8dd
4cc}
8r
=21
{8.ff
16ff
8dd
8ee-
8ee-
8cc
=22
8dd
8dd
8cc
8b-
8f
8f}
=23
{8g
8f
8e-
8d
8e-
8f
=24
8g
8b-
8b-
4.b-}
==
*-
!!!minrhy: 16
!!!meters: 6/8 ]  ZZ[11
!!!cut: An sealbh&szlig;n, S. 34
!!!reg: Irland
!!!trd: O'SULLIVAN, Donal: Song of the Irish
!!!rhy1:   X_X_X_X_X_X_  X_X_X_X__0   (x2)
!!!rhy2: X_X_X_X_X_X_  X_X_X_X__.
!!!key: I0534  16 Bb 6/8 ]  ZZ[11
!!!mod: SECHSTONSKALA DUR ?]  AMBITUS[10b
!!!kad: 11112-5112-51
!!!akz: 3-5-61_3-5-61_3-5-61_1432_3542_5431_-6-3-61_1432_3542_5431_-6-3-61_
!!!fot: 'a__a__a__b__c__cs"d__bv_cv_cs"dv_
!!!for: 'a__av_av_b__c__d__av_e__f__g__av_
!!!fok: 'Vd_Vd_Vd_^__^d_^d_Va_^__^d_Sd_Va_
!! PHRAS[VORWIEGEND VOLLTAKTIG]
!!!fkt: Arbeitslied
!! IRISCHE V
!! PR[16] 2K[16] 2G[15] 3K[6] 3G[7] 4A[3] 4Ü[0] 5A[0] 6K[0] 6G[0]
!! 7K[0] 7G[0] 8A[0] MEHR[0] SI[47] ABS[68] SR[31] SP[16]
!! ST[17] 2k[13] 2g[3] 3k[6] 3g[12] 4d[1] 4ü[1] 5d[0] 6k[0] 6g[0]
!! 7k[0] 7g[0] 8d[0] mehr[0] si[37] dm[+10] sr[16] sp[21]
!! 1F[3] 2F[58] 3F[35] 4F[0] LF[0] 2P[0] 3P[4] 4P[0] TRI[0] DF[4] AB[72]
!! TF[0] U3K[0] U3[0] U4[0] U4Ü[0] U5[12] U6K[0] U6[0] U7K[0] U7[17]
!! N1[30] N2K[0] N2[13] N3K[0] N3[13] N4[10] N4Ü[0] N5[4] N6K[0] N6[0]
!!!n7k: 0] N7[0] O1[0] O2K[0] O2[0] O3K[0] O3[0] HÖ[0
!!!RNB: symbol: &szlig; = sz ligature (UTF-8: ÃŸ)
